Sources/FrostedUI/Resources/Icons.xcassets/xCircleFilled20.imageset/x-circle-filled-20.svg

<svg width="20" height="20" viewBox="0 0 20 20" fill="none" xmlns="http://www.w3.org/2000/svg" data-fui-icon="true">
  <path
    fill-rule="evenodd"
    clip-rule="evenodd"
    d="M1 10C1 5.02944 5.02944 1 10 1C14.9706 1 19 5.02944 19 10C19 14.9706 14.9706 19 10 19C5.02944 19 1 14.9706 1 10ZM13.7805 6.15403C14.0734 6.44693 14.0734 6.9218 13.7805 7.21469L11.0609 9.93423L13.7807 12.654C14.0736 12.9469 14.0736 13.4218 13.7807 13.7147C13.4879 14.0076 13.013 14.0076 12.7201 13.7147L10.0002 10.9949L7.28032 13.7147C6.98743 14.0076 6.51256 14.0076 6.21966 13.7147C5.92677 13.4218 5.92678 12.9469 6.21968 12.654L8.93953 9.93423L6.21994 7.21469C5.92704 6.9218 5.92704 6.44693 6.21993 6.15403C6.51282 5.86114 6.98769 5.86113 7.28059 6.15402L10.0002 8.87358L12.7198 6.15402C13.0127 5.86113 13.4876 5.86114 13.7805 6.15403Z"
    fill="currentColor"
  />
</svg>

<svg xmlns="http://www.w3.org/2000/svg" width="20" height="20" fill="none" data-fui-icon="true" viewBox="0 0 20 20"><path fill="currentColor" fill-rule="evenodd" d="M1 10a9 9 0 1 1 18 0 9 9 0 0 1-18 0m12.78-3.846a.75.75 0 0 1 0 1.06l-2.72 2.72 2.72 2.72a.75.75 0 0 1-1.06 1.06L10 10.995l-2.72 2.72a.75.75 0 1 1-1.06-1.06l2.72-2.72-2.72-2.72a.75.75 0 1 1 1.06-1.06L10 8.874l2.72-2.72a.75.75 0 0 1 1.06 0" clip-rule="evenodd"/></svg>
